X: 29
T:Rambling Pitchfork
M:6/8
L:1/8
Q:135
Z:M.Brcher
K:D
E | ~F2 F AFF | dFF AFD | ~G2 G GBd| fed cAG | F2 F AFF |dFF AFD |
~G2 G BGB | AFD D2 :||A | d2 d fed |ecA AFA |~d2 d efg | (3fgaf gfe |
d2 d fed | ecA AFD |GFG BGB | AFD D2 A |d2 d fed | ecA AFA |
d2 d efg | (3fgaf  gfg | agf gfe |fed ecA | GFG BGB  | AFD D2 ||
